svg/icon/rdd.svg

<svg height="32" viewBox="0 0 32 32" width="32" xmlns="http://www.w3.org/2000/svg" xmlns:xlink="http://www.w3.org/1999/xlink"><defs><linearGradient id="a" x1="50%" x2="50%" y1="0%" y2="100%"><stop offset="0" stop-color="#fff" stop-opacity=".5"/><stop offset="1" stop-opacity=".5"/></linearGradient><circle id="b" cx="16" cy="15" r="15"/><filter id="c" height="111.7%" width="111.7%" x="-5.8%" y="-4.2%"><feOffset dy=".5" in="SourceAlpha" result="shadowOffsetOuter1"/><feGaussianBlur in="shadowOffsetOuter1" result="shadowBlurOuter1" stdDeviation=".5"/><feComposite in="shadowBlurOuter1" in2="SourceAlpha" operator="out" result="shadowBlurOuter1"/><feColorMatrix in="shadowBlurOuter1" values="0 0 0 0 0   0 0 0 0 0   0 0 0 0 0  0 0 0 0.199473505 0"/></filter></defs><g fill="none" fill-rule="evenodd"><use fill="#000" filter="url(#c)" xlink:href="#b"/><use fill="#e30613" xlink:href="#b"/><use fill="url(#a)" xlink:href="#b"/><circle cx="16" cy="15" r="14.5" stroke="#000" stroke-opacity=".097"/><g fill="#fff" transform="translate(5 4)"><path d="m10.3614336 22c-5.72246175 0-10.3614336-4.5926053-10.3614336-10.2578711 0-5.66526572 4.63897185-10.25787103 10.3614336-10.25787103 5.7224618 0 10.3614336 4.59260531 10.3614336 10.25787103 0 5.6652658-4.6389718 10.2578711-10.3614336 10.2578711zm1.7876527-17.57702149c2.4156689.98862569 4.1523473 2.84922539 5.3839475 5.35784108l.9307522-.64702649c-1.0449167-2.51136431-2.9739425-4.48575712-6.0768198-5.76628685z" opacity=".75"/><path d="m21.991893 4.32149925c0-2.38646677-1.9545684-4.32149925-4.3651287-4.32149925-2.4105604 0-4.3651288 1.93503248-4.3651288 4.32149925.0000538.22731522.0180999.45427678.0539728.6788006 1.453155.84657671 2.6208985 2.06069965 3.5537607 3.57651174.2502439.04367739.5038475.06574937.7579505.06596702 2.4100051.00021989 4.3645735-1.9345927 4.3645735-4.32127936z" fill-rule="nonzero"/></g></g></svg>

<svg xmlns="http://www.w3.org/2000/svg" xmlns:xlink="http://www.w3.org/1999/xlink" width="32" height="32" viewBox="0 0 32 32">
  <defs>
    <linearGradient id="rdd-c" x1="50%" x2="50%" y1="0%" y2="100%">
      <stop offset="0%" stop-color="#FFF" stop-opacity=".5"/>
      <stop offset="100%" stop-opacity=".5"/>
    </linearGradient>
    <circle id="rdd-b" cx="16" cy="15" r="15"/>
    <filter id="rdd-a" width="111.7%" height="111.7%" x="-5.8%" y="-4.2%" filterUnits="objectBoundingBox">
      <feOffset dy=".5" in="SourceAlpha" result="shadowOffsetOuter1"/>
      <feGaussianBlur in="shadowOffsetOuter1" result="shadowBlurOuter1" stdDeviation=".5"/>
      <feComposite in="shadowBlurOuter1" in2="SourceAlpha" operator="out" result="shadowBlurOuter1"/>
      <feColorMatrix in="shadowBlurOuter1" values="0 0 0 0 0   0 0 0 0 0   0 0 0 0 0  0 0 0 0.199473505 0"/>
    </filter>
  </defs>
  <g fill="none" fill-rule="evenodd">
    <use fill="#000" filter="url(#rdd-a)" xlink:href="#rdd-b"/>
    <use fill="#E30613" xlink:href="#rdd-b"/>
    <use fill="url(#rdd-c)" style="mix-blend-mode:soft-light" xlink:href="#rdd-b"/>
    <circle cx="16" cy="15" r="14.5" stroke="#000" stroke-opacity=".097"/>
    <g fill="#FFF" transform="translate(5 4)">
      <path d="M10.3614336,22 C4.63897185,22 0,17.4073947 0,11.7421289 C0,6.07686318 4.63897185,1.48425787 10.3614336,1.48425787 C16.0838954,1.48425787 20.7228672,6.07686318 20.7228672,11.7421289 C20.7228672,17.4073947 16.0838954,22 10.3614336,22 Z M12.1490863,4.42297851 C14.5647552,5.4116042 16.3014336,7.2722039 17.5330338,9.78081959 L18.463786,9.1337931 C17.4188693,6.62242879 15.4898435,4.64803598 12.3869662,3.36750625 L12.1490863,4.42297851 Z" opacity=".75"/>
      <path fill-rule="nonzero" d="M21.991893,4.32149925 C21.991893,1.93503248 20.0373246,0 17.6267643,0 C15.2162039,0 13.2616355,1.93503248 13.2616355,4.32149925 C13.2616893,4.54881447 13.2797354,4.77577603 13.3156083,5.00029985 C14.7687633,5.84687656 15.9365068,7.0609995 16.869369,8.57681159 C17.1196129,8.62048898 17.3732165,8.64256096 17.6273195,8.64277861 C20.0373246,8.6429985 21.991893,6.70818591 21.991893,4.32149925 Z"/>
    </g>
  </g>
</svg>
